src/data/images/pesticide.svg

<svg xmlns="http://www.w3.org/2000/svg" xmlns:xlink="http://www.w3.org/1999/xlink" version="1.0" x="0px" y="0px" viewBox="0 0 100 125" enable-background="new 0 0 100 100" xml:space="preserve"><g><g><path d="M23.208313,87.875h16.458374l0.916626-14.5118408c0,0-20.166626-3.1965332-19.916626-3.4465332L23.208313,87.875z"/><circle cx="82.2036743" cy="81.3547363" r="2.0000155"/><circle cx="84.4533081" cy="72.9420471" r="1.9999861"/><circle cx="86.7030029" cy="64.5292358" r="2.0000155"/><circle cx="69.882019" cy="69.0455017" r="1.9999861"/><circle cx="76.0212402" cy="75.2806396" r="2.0000155"/><circle cx="78.2493896" cy="66.9483948" r="1.9999861"/><path d="M36.840332,30.2553711c1.168335,0.8894653,2.5508423,1.4420776,3.9632568,1.8086548    c3.015564,0.7825928,6.3740234,1.2149658,9.1322632-0.5526123c0.0377197-0.0241699,0.0751953-0.048645,0.1124878-0.0734253    c3.3144531-2.203125,3.9907227-6.3095703,4.0175781-6.4833984l0.2050781-1.3100586l-1.2753906-0.3637695    c-0.3657837-0.1043701-0.7385864-0.2113037-1.1140747-0.319397c0.0081177-0.4702148-0.0073853-0.9447021-0.0724487-1.4247437    c-0.6943359-5.1220703-5.4306641-8.7236328-10.5488281-8.0307617c-2.4819336,0.3359375-4.6835938,1.6186523-6.2006836,3.6113281    c-1.5166016,1.9921875-2.1669922,4.4560547-1.8305664,6.9375C33.5649414,26.5366211,34.8476562,28.7382812,36.840332,30.2553711z     M37.1157227,22.737793c0.1567383-0.5292969,0.7119141-0.8276367,1.2421875-0.6767578l12.5629883,3.6928711    c-0.371582,0.9916992-1.0795898,2.3413086-2.3500977,3.1855469c-1.1105347,0.737915-2.8041992,1.2789307-4.1029663,0.7544556    c-0.7411499-0.2992554-1.0442505-0.9024658-1.251709-1.6259766c-0.2452393-0.8555298-0.3804321-1.7414551-0.460083-2.6262817    l-4.963562-1.4616699C37.2626953,23.8237305,36.9599609,23.2675781,37.1157227,22.737793z"/><path d="M63.1621094,66.5073242c-0.149292-0.0137329-7.4197998-0.6916504-15.8387451-1.5125732    c-0.2623901-0.9902344-0.5404053-1.6859741-0.5404053-1.6859741L42,54.3125    c0.5099487-2.0793457,1.5141602-5.217041,1.7943726-7.3381958c0.3067017-2.3217163,0.7088013-4.7045898,0.3605347-7.0465698    c-0.1159668-0.7793579-0.3363647-1.4562378-0.6381836-2.0321045c-2.3148193-4.4163818-7.8746948-2.1113892-9.9080811,1.21521    c-2.175354,3.5588379-2.6132202,8.5177612-2.3948975,12.5805054L31.75,56.333313l5.9775391,7.7095337    c-5.8344116-0.5908203-11.1585083-1.1574707-14.0009766-1.5281982c-1.8969727-0.2475586-3.2617188-0.9697266-4.171875-2.2089844    c-0.9319458-1.2680664-1.2368164-2.8731079-1.3071899-4.1708374L21.5,57.375L30,31.833313    c-2.7177734-1.3470459-6.7271118-2.4615479-9.666687-1.333313c-2.7183228,1.043335-4.1050415,3.2702026-4.9822998,5.9421387    c-1.8080444,5.5067139-3.6160278,11.0133667-5.4240723,16.5200806l4.8193359,1.8375854    c-0.078125,1.8745117,0.1248779,5.0269775,1.9719849,7.5566406c1.4848633,2.0341797,3.6904297,3.2553711,6.5551758,3.6289062    c3.4034424,0.4439087,10.3092041,1.1638794,17.4117432,1.8720703l2.53479,3.2692261c0,0,2.4119873,1.7156372,3.9610596-0.6193237    c0.361145-0.5443115,0.5269165-1.2280273,0.5770264-1.9535522c8.0993652,0.7880859,14.9348145,1.425415,15.079834,1.4389038    C62.8930664,69.9975586,62.9477539,70,63.0019531,70c0.8935547,0,1.65625-0.6806641,1.7407227-1.5878906    C64.8320312,67.449707,64.1245117,66.597168,63.1621094,66.5073242z M17.125,48.5319824    c0.8452759,0,1.5305176,0.6852417,1.5305176,1.5305176S17.9702759,51.5930176,17.125,51.5930176    s-1.5305176-0.6852417-1.5305176-1.5305176S16.2797241,48.5319824,17.125,48.5319824z"/></g></g><text x="0" y="115" fill="#000000" font-size="5px" font-weight="bold" font-family="'Helvetica Neue', Helvetica, Arial-Unicode, Arial, Sans-serif">Created by Yu luck</text><text x="0" y="120" fill="#000000" font-size="5px" font-weight="bold" font-family="'Helvetica Neue', Helvetica, Arial-Unicode, Arial, Sans-serif">from the Noun Project</text></svg>

<svg width="100" height="125" viewBox="0 0 100 125" fill="none" xmlns="http://www.w3.org/2000/svg">
<path d="M23.208 87.8749H39.6664L40.583 73.363C40.583 73.363 20.4164 70.1665 20.6664 69.9165L23.208 87.8749Z" fill="black"/>
<path d="M82.2036 83.3548C83.3082 83.3548 84.2036 82.4593 84.2036 81.3548C84.2036 80.2502 83.3082 79.3547 82.2036 79.3547C81.0991 79.3547 80.2036 80.2502 80.2036 81.3548C80.2036 82.4593 81.0991 83.3548 82.2036 83.3548Z" fill="black"/>
<path d="M84.4531 74.9419C85.5577 74.9419 86.4531 74.0464 86.4531 72.9419C86.4531 71.8373 85.5577 70.9419 84.4531 70.9419C83.3485 70.9419 82.4531 71.8373 82.4531 72.9419C82.4531 74.0464 83.3485 74.9419 84.4531 74.9419Z" fill="black"/>
<path d="M86.7027 66.5291C87.8072 66.5291 88.7027 65.6336 88.7027 64.5291C88.7027 63.4245 87.8072 62.5291 86.7027 62.5291C85.5981 62.5291 84.7026 63.4245 84.7026 64.5291C84.7026 65.6336 85.5981 66.5291 86.7027 66.5291Z" fill="black"/>
<path d="M69.8818 71.0454C70.9864 71.0454 71.8818 70.15 71.8818 69.0454C71.8818 67.9408 70.9864 67.0454 69.8818 67.0454C68.7773 67.0454 67.8818 67.9408 67.8818 69.0454C67.8818 70.15 68.7773 71.0454 69.8818 71.0454Z" fill="black"/>
<path d="M76.021 77.2805C77.1256 77.2805 78.021 76.3851 78.021 75.2805C78.021 74.176 77.1256 73.2805 76.021 73.2805C74.9164 73.2805 74.021 74.176 74.021 75.2805C74.021 76.3851 74.9164 77.2805 76.021 77.2805Z" fill="black"/>
<path d="M78.249 68.9482C79.3536 68.9482 80.249 68.0528 80.249 66.9482C80.249 65.8437 79.3536 64.9482 78.249 64.9482C77.1444 64.9482 76.249 65.8437 76.249 66.9482C76.249 68.0528 77.1444 68.9482 78.249 68.9482Z" fill="black"/>
<path d="M36.84 30.2553C38.0084 31.1447 39.3909 31.6974 40.8033 32.0639C43.8189 32.8465 47.1773 33.2789 49.9356 31.5113C49.9733 31.4872 50.0108 31.4627 50.0481 31.4379C53.3625 29.2348 54.0388 25.1283 54.0656 24.9545L54.2707 23.6444L52.9953 23.2807C52.6295 23.1763 52.2567 23.0694 51.8812 22.9613C51.8894 22.4911 51.8739 22.0166 51.8088 21.5365C51.1145 16.4145 46.3781 12.8129 41.26 13.5058C38.778 13.8417 36.5764 15.1244 35.0593 17.1171C33.5427 19.1093 32.8923 21.5732 33.2287 24.0546C33.5647 26.5365 34.8474 28.7382 36.84 30.2553ZM37.1154 22.7377C37.2722 22.2084 37.8274 21.9101 38.3576 22.0609L50.9206 25.7538C50.549 26.7455 49.841 28.0951 48.5705 28.9394C47.46 29.6773 45.7663 30.2183 44.4675 29.6938C43.7264 29.3946 43.4233 28.7914 43.2158 28.0678C42.9706 27.2123 42.8354 26.3264 42.7558 25.4416L37.7922 23.9799C37.2624 23.8236 36.9597 23.2675 37.1154 22.7377Z" fill="black"/>
<path d="M63.1619 66.5072C63.0126 66.4935 55.7421 65.8156 47.3232 64.9947C47.0608 64.0044 46.7828 63.3087 46.7828 63.3087L41.9998 54.3124C42.5098 52.2331 43.514 49.0954 43.7942 46.9742C44.1009 44.6525 44.503 42.2696 44.1547 39.9276C44.0388 39.1483 43.8184 38.4714 43.5165 37.8955C41.2017 33.4792 35.6418 35.7842 33.6085 39.1108C31.4331 42.6696 30.9952 47.6285 31.2136 51.6913L31.7498 56.3332L37.7274 64.0428C31.8929 63.4519 26.5688 62.8853 23.7264 62.5146C21.8294 62.267 20.4647 61.5448 19.5545 60.3056C18.6226 59.0375 18.3177 57.4325 18.2473 56.1347L21.4998 57.3749L29.9998 31.8332C27.282 30.4862 23.2727 29.3717 20.3331 30.4999C17.6148 31.5432 16.2281 33.7701 15.3508 36.442C13.5428 41.9488 11.7348 47.4554 9.92676 52.9621L14.7461 54.7997C14.668 56.6742 14.871 59.8267 16.7181 62.3564C18.2029 64.3905 20.4085 65.6117 23.2733 65.9853C26.6767 66.4292 33.5825 67.1491 40.685 67.8573L43.2198 71.1266C43.2198 71.1266 45.6318 72.8422 47.1808 70.5072C47.542 69.9629 47.7078 69.2792 47.7579 68.5537C55.8572 69.3418 62.6927 69.9791 62.8377 69.9926C62.8929 69.9975 62.9476 69.9999 63.0018 69.9999C63.8953 69.9999 64.658 69.3192 64.7425 68.412C64.8318 67.4496 64.1243 66.5971 63.1619 66.5072ZM17.1248 48.5319C17.9701 48.5319 18.6553 49.2171 18.6553 50.0624C18.6553 50.9077 17.9701 51.5929 17.1248 51.5929C16.2795 51.5929 15.5943 50.9077 15.5943 50.0624C15.5943 49.2171 16.2795 48.5319 17.1248 48.5319Z" fill="black"/>
</svg>
